X: 141
T: Your welcome to your feet again
R: reel
B: Robert Bremner "A Collection of Scots Reels or Country Dances" p.14 #1
S: http://imslp.org/wiki/A_Collection_of_Scots_Reels_or_Country_Dances_(Bremner,_Robert)
Z: 2013 John Chambers <jc:trillian.mit.edu>
M: C|
L: 1/8
K: C
% - - - - - - - - - - - - - - - - - - - - - - - - -
V: 1
|:\
CEGA cED2 | CEGA cGAc | FdEc dEDE | CEGA cGAc :|
|: gcga gede | gcga gage | fage dcde | cGAG cGAc :|
% - - - - - - - - - - - - - - - - - - - - - - - - -
V: 2 clef=bass middle=d
|:\
c2c2 d2d2 | c2c2 c2c2 | f2e2 d2d2 | c2c2 c2c2 :|
|: c2c2 d2d2 |
c2c2 c2c2 | f2e2 d2d2 | c2c2 c2c2 :|
% - - - - - - - - - - - - - - - - - - - - - - - - -

%%sep 1 1 500
%%sep 1 1 500
